assets/logos/icons/steps-color-tuorqouise.svg

<svg height="24" viewBox="0 0 24 24" width="24" xmlns="http://www.w3.org/2000/svg"><g fill="#0dd3c5" fill-rule="evenodd"><path d="m9.17193032 2.70980343-6.17193032 3.29019657 9 5.0054474 9-4.98659872-6.1743906-3.30443914c-1.7656927-.94497162-3.886449-.94669942-5.65367908-.00460611z"/><path d="m5.94553182 18.3926041 6.05446818 3.6073959v-11l-9-5 .01667951 7.251974c.00485123 2.1092323 1.1168658 4.0610055 2.92885231 5.1406301z" opacity=".8"/><path d="m12 11v11l6.054439-3.6074059c1.8119651-1.07962 2.9239704-3.0313701 2.9288351-5.1405815l.0167259-7.2520126z" opacity=".5"/></g></svg>

<svg xmlns="http://www.w3.org/2000/svg" width="24" height="24" viewBox="0 0 24 24">
  <g fill="none" fill-rule="evenodd">
    <path fill="#0DD3C5" d="M9.17193032,2.70980343 L3,6 L12,11.0054474 L21,6.01884868 L14.8256094,2.71440954 C13.0599167,1.76943792 10.9391604,1.76771012 9.17193032,2.70980343 Z"/>
    <path fill="#0DD3C5" d="M5.94553182,18.3926041 L12,22 L12,11 L3,6 L3.01667951,13.251974 C3.02153074,15.3612063 4.13354531,17.3129795 5.94553182,18.3926041 Z" opacity=".8"/>
    <path fill="#0DD3C5" d="M12,11 L12,22 L18.054439,18.3925941 C19.8664041,17.3129741 20.9784094,15.361224 20.9832741,13.2520126 L21,6 L12,11 Z" opacity=".5"/>
  </g>
</svg>
